_site/images/features/icons/code.svg

<svg height="22" viewBox="0 0 32 22" width="32" xmlns="http://www.w3.org/2000/svg"><path d="m12.107 1.193c-.3192032-.32183151-.7537162-.50285715-1.207-.50285715s-.8877968.18102564-1.207.50285715l-8.5 8.5c-.32183151.3192032-.50285715.7537162-.50285715 1.207s.18102564.8877968.50285715 1.207l8.5 8.5c.3192032.3218315.7537162.5028572 1.207.5028572s.8877968-.1810257 1.207-.5028572c.3218315-.3192032.5028572-.7537162.5028572-1.207s-.1810257-.8877968-.5028572-1.207l-7.31-7.293 7.31-7.293c.3218315-.31920322.5028572-.75371619.5028572-1.207s-.1810257-.88779678-.5028572-1.207zm18.7 8.5-8.5-8.5c-.4312196-.43121957-1.0597358-.59962998-1.6487927-.44179266-.5890568.15783731-1.0491626.61794311-1.207 1.207-.1578373.58905688.0105731 1.21757309.4417927 1.64879266l7.31 7.293-7.31 7.293c-.3218315.3192032-.5028572.7537162-.5028572 1.207s.1810257.8877968.5028572 1.207c.3192032.3218315.7537162.5028572 1.207.5028572s.8877968-.1810257 1.207-.5028572l8.5-8.5c.3218315-.3192032.5028572-.7537162.5028572-1.207s-.1810257-.8877968-.5028572-1.207z" fill="#0b7a76"/></svg>

<?xml version="1.0" encoding="UTF-8"?>
<svg width="32px" height="22px" viewBox="0 0 32 22" version="1.1" xmlns="http://www.w3.org/2000/svg" xmlns:xlink="http://www.w3.org/1999/xlink">
    <!-- Generator: Sketch 52.6 (67491) - http://www.bohemiancoding.com/sketch -->
    <title>code</title>
    <desc>Created with Sketch.</desc>
    <g id="Landing-page" stroke="none" stroke-width="1" fill="none" fill-rule="evenodd">
        <g id="1.3--Features" transform="translate(-975.000000, -4523.000000)" fill="#0B7A76" fill-rule="nonzero">
            <g id="Group-11" transform="translate(174.000000, 4518.000000)">
                <g id="code" transform="translate(801.000000, 5.000000)">
                    <path d="M12.107,1.193 C11.7877968,0.871168494 11.3532838,0.690142849 10.9,0.690142849 C10.4467162,0.690142849 10.0122032,0.871168494 9.693,1.193 L1.193,9.693 C0.871168494,10.0122032 0.690142849,10.4467162 0.690142849,10.9 C0.690142849,11.3532838 0.871168494,11.7877968 1.193,12.107 L9.693,20.607 C10.0122032,20.9288315 10.4467162,21.1098572 10.9,21.1098572 C11.3532838,21.1098572 11.7877968,20.9288315 12.107,20.607 C12.4288315,20.2877968 12.6098572,19.8532838 12.6098572,19.4 C12.6098572,18.9467162 12.4288315,18.5122032 12.107,18.193 L4.797,10.9 L12.107,3.607 C12.4288315,3.28779678 12.6098572,2.85328381 12.6098572,2.4 C12.6098572,1.94671619 12.4288315,1.51220322 12.107,1.193 Z M30.807,9.693 L22.307,1.193 C21.8757804,0.761780433 21.2472642,0.593370021 20.6582073,0.751207338 C20.0691505,0.909044654 19.6090447,1.36915045 19.4512073,1.95820734 C19.29337,2.54726422 19.4617804,3.17578043 19.893,3.607 L27.203,10.9 L19.893,18.193 C19.5711685,18.5122032 19.3901428,18.9467162 19.3901428,19.4 C19.3901428,19.8532838 19.5711685,20.2877968 19.893,20.607 C20.2122032,20.9288315 20.6467162,21.1098572 21.1,21.1098572 C21.5532838,21.1098572 21.9877968,20.9288315 22.307,20.607 L30.807,12.107 C31.1288315,11.7877968 31.3098572,11.3532838 31.3098572,10.9 C31.3098572,10.4467162 31.1288315,10.0122032 30.807,9.693 Z" id="Shape"></path>
                </g>
            </g>
        </g>
    </g>
</svg>
